!!!COM: Anon.
!!!OTL: Eram tre^s filhas de um rei
!!!OTL: Romanceiro Folclorico do Brasil
!!!CNT: Brasil
!!!OCY: Brasil
!!!ODT: <1971///
!!!PSR: Irmaos Vitale
!!!PSP: Sao Paulo, Brasil
!!!PDT: 1949///
!!!PPE: Rossini Tavares de Lima
!!!PPG: pages 26-27
!! Romance: Silvaninha
!! Place: Bairro de Vila-Rio Espera, Barbacena, Minas Gerais, Brasil
**kern
*clefG2
*k[b-e-a-]
*M3/4
*MM98
8c
8e-
=
4.g
8e-
8.d
16c
=
2g
8b-
8a-
=
4g
4f
8.a-
16g
=
4f
4f
4f
=
4.dd
8dd
8.ee-
16dd
=
4cc
8g
8g
8b-
8a-
=
4g
4f
8e-
8d
=
4d
4c
==
*-
